src/app/assets/images/polygon-migration-banner-light.svg

<svg viewBox="0 0 477 260" fill="none" xmlns="http://www.w3.org/2000/svg">
	<path
		d="M298.07 212.234L369.553 253.541C372.594 255.296 376.043 256.221 379.553 256.221C383.064 256.221 386.513 255.296 389.553 253.541L465.567 209.654C468.608 207.899 471.132 205.374 472.888 202.334C474.643 199.293 475.567 195.845 475.567 192.334V104.561C475.567 101.05 474.643 97.6013 472.888 94.5608C471.133 91.5203 468.608 88.9955 465.567 87.2401L422.5 62.375M266.5 194L287.5 206.129"
		stroke="#5452CE" stroke-width="2" stroke-linecap="round" />
	<path
		d="M303.09 185.611V115.998C303.09 112.487 304.015 109.039 305.77 105.998C307.525 102.958 310.05 100.433 313.09 98.6779L369.554 66.0779C372.595 64.3226 376.044 63.3984 379.554 63.3984C383.065 63.3984 386.514 64.3226 389.554 66.0779L446.018 98.6779C449.059 100.433 451.583 102.958 453.339 105.998C455.094 109.039 456.018 112.487 456.018 115.998V155.859M284.07 181.233L369.554 231.118C372.595 232.873 376.044 233.797 379.554 233.797C383.065 233.797 386.514 232.873 389.554 231.118L415 216.427M428.107 208.859L446.018 198.518C449.059 196.763 451.583 194.238 453.339 191.198C455.094 188.157 456.018 184.709 456.018 181.198V168.859"
		stroke="#5452CE" stroke-width="2" stroke-linecap="round" />
	<path
		d="M385.5 255.359C376.5 258.359 369.742 259.691 363.554 256.118L333.326 238.478M316.102 228.427C296.411 216.934 269.07 201.234 269.07 201.234"
		stroke="#5452CE" stroke-width="2" stroke-linecap="round" />
	<path fill-rule="evenodd" clip-rule="evenodd"
		d="M381.107 127.853L323 189L381.107 95L438.79 189L381.107 127.853ZM354.927 169.376L364.213 159.564H397.841L407.127 169.376H354.927ZM370.821 152.736L381.093 142.212L391.223 152.736H370.821Z"
		fill="#D6D5FF" />
	<path
		d="M381.107 127.853L381.834 127.167L381.109 126.398L380.382 127.164L381.107 127.853ZM323 189L322.149 188.474L323.725 189.689L323 189ZM381.107 95L381.959 94.477L381.11 93.0931L380.256 94.4742L381.107 95ZM438.79 189L438.063 189.686L439.642 188.477L438.79 189ZM354.927 169.376L354.201 168.689L352.604 170.376H354.927V169.376ZM364.213 159.564V158.564H363.783L363.487 158.876L364.213 159.564ZM397.841 159.564L398.567 158.876L398.271 158.564H397.841V159.564ZM407.127 169.376V170.376H409.45L407.853 168.689L407.127 169.376ZM370.821 152.736L370.105 152.037L368.447 153.736H370.821V152.736ZM381.093 142.212L381.814 141.519L381.098 140.776L380.377 141.514L381.093 142.212ZM391.223 152.736V153.736H393.573L391.943 152.042L391.223 152.736ZM380.382 127.164L322.275 188.311L323.725 189.689L381.831 128.542L380.382 127.164ZM323.851 189.526L381.957 95.5258L380.256 94.4742L322.149 188.474L323.851 189.526ZM380.254 95.523L437.938 189.523L439.642 188.477L381.959 94.477L380.254 95.523ZM439.517 188.314L381.834 127.167L380.379 128.539L438.063 189.686L439.517 188.314ZM355.654 170.063L364.94 160.251L363.487 158.876L354.201 168.689L355.654 170.063ZM364.213 160.564H397.841V158.564H364.213V160.564ZM397.115 160.251L406.401 170.063L407.853 168.689L398.567 158.876L397.115 160.251ZM407.127 168.376H354.927V170.376H407.127V168.376ZM371.536 153.434L381.809 142.911L380.377 141.514L370.105 152.037L371.536 153.434ZM380.373 142.906L390.502 153.429L391.943 152.042L381.814 141.519L380.373 142.906ZM391.223 151.736H370.821V153.736H391.223V151.736Z"
		fill="#5452CE" />
	<path
		d="M90.3828 141.737C90.3828 141.737 113.021 128.228 127.214 103.645C134.472 91.2386 141.099 78.4733 147.07 65.3984C147.07 65.3984 123.87 110.547 101.14 106.398C92.2688 131.326 90.3828 141.737 90.3828 141.737Z"
		fill="#FEB8AE" />
	<path
		d="M163.571 130.508C163.571 130.508 186.829 138.508 215.284 79.4922C212.833 86.3342 204.884 105.22 191.636 128.162C174.701 157.495 155.401 175.501 155.401 175.501C155.401 175.501 147.633 173.156 163.571 130.508Z"
		fill="#D6D5FF" />
	<path
		d="M262.815 107.68C262.815 107.68 246.829 144.969 233.844 134.728C232.57 136.935 228.697 149.359 229.063 159.602C229.241 164.566 232.271 155.073 235.219 157.602C239.719 156.102 241.719 154.602 244.645 153.602C248.473 145.959 252.446 137.17 255.145 129.962C261.551 112.852 262.815 107.68 262.815 107.68Z"
		fill="#D6D5FF" />
	<path d="M84.1406 137.973L90.5297 93.75" stroke="#DE5846" stroke-width="2" stroke-linecap="round" />
	<path
		d="M88.398 76.6184C86.689 87.3744 81.8081 125.318 80.5661 135.162C79.3241 145.006 87.33 144.196 93.858 139.126C100.386 134.056 122.014 120.092 146.07 65.3984"
		stroke="#DE5846" stroke-width="2" stroke-linecap="round" />
	<path
		d="M55.5337 154.098C55.1857 160.733 69.1137 182.268 98.8337 166.485C128.554 150.702 150.778 118.73 171.28 76.9849C184.293 50.4899 182.564 31.5659 174.7 24.7969"
		stroke="#DE5846" stroke-width="2" stroke-linecap="round" />
	<path
		d="M87.0508 176.207C87.0508 176.207 123.405 172.924 163.237 103.933C178.982 76.6617 194.512 36.2428 174.143 24.4818C153.774 12.7208 110.654 58.3908 90.5148 137.202"
		stroke="#DE5846" stroke-width="2" stroke-linecap="round" />
	<path
		d="M111.987 169.732C111.987 169.732 109.687 185.468 120.179 191.526C130.671 197.584 170.358 182.441 215.602 78.9375"
		stroke="#DE5846" stroke-width="2" stroke-linecap="round" />
	<path
		d="M89.1404 181.025C89.1404 181.025 86.7845 204.149 103.579 213.846C119.457 223.013 150.806 235.846 207.231 153.062"
		stroke="#DE5846" stroke-width="2" stroke-linecap="round" />
	<path
		d="M217.25 137.762C221.475 130.911 225.33 123.838 228.797 116.574C242.776 87.6959 256.062 48.1359 241.835 39.9219"
		stroke="#5452CE" stroke-width="2" stroke-linecap="round" />
	<path
		d="M130.398 226.654C130.398 226.654 173.574 225.033 226.244 133.805C236.367 116.271 266.081 53.9224 241.833 39.9234C235.214 36.102 226.334 39.1926 216.717 46.9974M152.955 168.161C157.26 140.946 169.754 110.921 184.535 86.6016"
		stroke="#5452CE" stroke-width="2" stroke-linecap="round" />
	<path
		d="M158.078 217.124C158.078 217.124 195.778 277.446 264.267 174.559C293.597 130.501 292.079 93.4215 284.095 88.8125"
		stroke="#5452CE" stroke-width="2" stroke-linecap="round" />
	<path
		d="M202.719 237.798C202.719 237.798 234.419 234.498 270.254 177.368C299.903 130.104 296.64 96.0455 284.654 89.1275C262.8 76.5144 227.712 128.878 229.043 159.602"
		stroke="#5452CE" stroke-width="2" stroke-linecap="round" />
	<path
		d="M178.719 199.359C179.396 205.458 190.476 211.299 206.215 201.701M263.132 107.125C257.039 125.227 250.371 141.226 244.215 153.602"
		stroke="#5452CE" stroke-width="2" stroke-linecap="round" />
	<path
		d="M58.6979 98.0346C43.8089 89.4386 25.6502 93.0162 18.1388 106.026C10.6274 119.035 16.6084 136.55 31.4983 145.148C46.3882 153.746 64.5464 150.166 72.0574 137.157C79.5684 124.148 73.5854 106.629 58.6979 98.0346Z"
		stroke="#DE5846" stroke-width="2" stroke-linecap="round" />
	<path
		d="M57.3648 99.7286C43.9683 91.9943 27.6306 95.2131 20.8721 106.919C14.1137 118.624 19.4953 134.383 32.8918 142.117C46.2882 149.852 62.626 146.633 69.3844 134.927C76.1428 123.222 70.7603 107.463 57.3648 99.7286Z"
		stroke="#8AC0F7" stroke-width="2" stroke-linecap="round" />
	<path
		d="M36.065 139.073C36.6612 136.787 41.9978 114.217 41.9978 114.217C42.0819 113.949 42.1329 113.8 42.5733 114.02C42.5733 114.02 66.0048 127.422 66.4197 127.591C66.6822 127.697 66.7444 127.597 66.4366 127.338C64.448 125.672 38.4797 105.699 38.4797 105.699C38.3091 105.551 38.2062 105.627 38.1847 105.796C38.1847 105.796 35.7624 138.012 35.79 139.046C35.7946 139.218 35.8562 139.326 35.9261 139.307C35.9748 139.294 36.0259 139.222 36.065 139.073ZM42.4014 129.87C42.4968 129.836 54.8271 125.588 54.9404 125.548C54.9671 125.536 54.9897 125.516 55.0054 125.492C55.0212 125.467 55.0294 125.439 55.0291 125.409C55.0288 125.38 55.02 125.352 55.0037 125.328C54.9874 125.304 54.9644 125.285 54.9375 125.274C54.8175 125.2 51.7836 123.387 51.6476 123.31C51.5877 123.276 51.5209 123.255 51.452 123.249C51.3831 123.243 51.3137 123.253 51.2485 123.276C51.1272 123.318 43.2371 125.963 43.1112 126.007C43.0385 126.041 42.9748 126.091 42.925 126.154C42.8752 126.217 42.8408 126.29 42.8245 126.368C42.7943 126.525 42.3365 129.454 42.2941 129.627C42.2518 129.801 42.3019 129.896 42.3917 129.872L42.4014 129.87Z"
		fill="#FFE0DA" />
	<path
		d="M43.0147 123.075C42.8769 123.123 42.8048 123.095 42.8781 122.787C42.9514 122.478 43.8441 118.578 43.8439 118.371C43.8437 118.163 44.0117 118.021 44.3316 118.206C44.6514 118.391 48.4193 120.532 48.6221 120.646C48.8249 120.759 49.03 121.004 48.8514 121.065L43.0147 123.075Z"
		fill="#FFE0DA" />
	<path
		d="M36.065 139.073C36.6612 136.787 41.9978 114.217 41.9978 114.217C42.0819 113.949 42.1329 113.8 42.5733 114.02C42.5733 114.02 66.0048 127.422 66.4197 127.591C66.6822 127.697 66.7444 127.597 66.4366 127.338C64.448 125.672 38.4797 105.699 38.4797 105.699C38.3091 105.551 38.2062 105.627 38.1847 105.796C38.1847 105.796 35.7624 138.012 35.79 139.046C35.7946 139.218 35.8562 139.326 35.9261 139.307C35.9748 139.294 36.0259 139.222 36.065 139.073ZM42.4014 129.87C42.4968 129.836 54.8271 125.588 54.9404 125.548C54.9671 125.536 54.9897 125.516 55.0054 125.492C55.0212 125.467 55.0294 125.439 55.0291 125.409C55.0288 125.38 55.02 125.352 55.0037 125.328C54.9874 125.304 54.9644 125.285 54.9375 125.274C54.8175 125.2 51.7836 123.387 51.6476 123.31C51.5877 123.276 51.5209 123.255 51.452 123.249C51.3831 123.243 51.3137 123.253 51.2485 123.276C51.1272 123.318 43.2371 125.963 43.1112 126.007C43.0385 126.041 42.9748 126.091 42.925 126.154C42.8752 126.217 42.8408 126.29 42.8245 126.368C42.7943 126.525 42.3365 129.454 42.2941 129.627C42.2518 129.801 42.3019 129.896 42.3917 129.872L42.4014 129.87Z"
		stroke="#DE5846" stroke-width="2" />
	<path
		d="M43.0147 123.075C42.8769 123.123 42.8048 123.095 42.8781 122.787C42.9514 122.478 43.8441 118.578 43.8439 118.371C43.8437 118.163 44.0117 118.021 44.3316 118.206C44.6514 118.391 48.4193 120.532 48.6221 120.646C48.8249 120.759 49.03 121.004 48.8514 121.065L43.0147 123.075Z"
		stroke="#DE5846" stroke-width="2" />
	<path
		d="M17.9631 106.277C17.9631 106.277 14.9022 111.177 14.4019 112.042C11.307 117.494 10.3713 123.91 11.7799 130.019M14.5096 137.514C17.542 143.229 22.1381 147.962 27.7608 151.162M31.5637 153.068C45.6177 159.093 61.438 155.09 68.3208 143.173C68.8182 142.365 69.2488 141.519 69.6081 140.641"
		stroke="#DE5846" stroke-width="2" stroke-linecap="round" />
	<path
		d="M199.699 190.463C195.169 187.598 203.439 177.042 218.173 166.885C232.906 156.727 248.522 150.816 253.053 153.68C257.584 156.545 249.313 167.101 234.579 177.259C219.846 187.416 204.23 193.325 199.699 190.463Z"
		stroke="#5452CE" stroke-width="2" stroke-linecap="round" />
	<path
		d="M250.485 157.043C249.164 161.383 242.416 168.413 232.503 175.248C221.277 182.987 209.497 188.06 203.359 188.118"
		stroke="#8AC0F7" stroke-width="2" stroke-linecap="round" />
	<path
		d="M199.246 190.122C199.246 190.122 206.604 197.844 208.439 199.026C210.104 200.098 213.25 199.92 217.301 198.732M224.6 195.943C230.193 193.333 235.551 190.246 240.614 186.716M244.822 183.665C253.994 176.661 259.577 169.888 259.244 166.314C259.169 165.507 254.027 154.74 254.027 154.74"
		stroke="#5452CE" stroke-width="2" stroke-linecap="round" />
	<path
		d="M187.87 47.001C198.299 40.9067 211.07 43.3511 216.396 52.4657C221.721 61.5804 217.584 73.9064 207.154 80.0006C197.911 85.4027 186.827 84.096 180.719 77.3827"
		stroke="#5452CE" stroke-width="2" stroke-linecap="round" />
	<path
		d="M181.02 73.1147C185.569 80.9001 196.48 82.9904 205.391 77.7836C214.301 72.5769 217.835 62.0448 213.285 54.2593C208.736 46.4739 197.824 44.3836 188.914 49.5904C188.141 50.0423 187.408 50.5343 186.718 51.0612"
		stroke="#8AC0F7" stroke-width="2" stroke-linecap="round" />
	<path
		d="M187.281 40.8243C197.136 36.5398 208.488 39.2385 213.367 47.5873C214.097 48.8331 215.431 50.9634 215.431 50.9634"
		stroke="#5452CE" stroke-width="2" stroke-linecap="round" />
	<path d="M244.468 233.17C235.545 239.262 226.068 243.761 216.424 246.65" stroke="#8AC0F7" stroke-width="2"
		stroke-linecap="round" />
	<path d="M240.834 228.515C240.834 228.515 207.782 261.847 158.953 243.008" stroke="#8AC0F7" stroke-width="2"
		stroke-linecap="round" />
	<path
		d="M240.761 228.544L238.972 226.208C238.837 226.031 238.75 225.822 238.721 225.601C238.692 225.381 238.722 225.156 238.807 224.951C238.893 224.745 239.031 224.565 239.207 224.43C239.384 224.295 239.593 224.208 239.814 224.179L251.25 222.681C251.47 222.653 251.694 222.682 251.9 222.768C252.105 222.853 252.284 222.991 252.42 223.167C252.555 223.344 252.642 223.553 252.671 223.773C252.7 223.994 252.67 224.218 252.586 224.424L248.163 235.076C248.078 235.281 247.94 235.461 247.763 235.596C247.586 235.732 247.377 235.818 247.156 235.847C246.936 235.876 246.711 235.846 246.506 235.761C246.3 235.676 246.12 235.538 245.985 235.361L244.338 233.211"
		stroke="#8AC0F7" stroke-width="2" stroke-linecap="round" />
	<path d="M111.782 50.2972C117.654 42.3272 124.453 35.4029 131.853 29.6765" stroke="#8AC0F7" stroke-width="2"
		stroke-linecap="round" />
	<path d="M116.216 52.6423C116.216 52.6423 134.893 14.7054 181.91 11.8691" stroke="#8AC0F7" stroke-width="2"
		stroke-linecap="round" />
	<path
		d="M116.269 52.5865L118.461 53.7687C118.627 53.8582 118.761 53.9907 118.848 54.1528C118.936 54.3149 118.975 54.501 118.96 54.6924C118.946 54.8838 118.88 55.0738 118.768 55.2431C118.656 55.4125 118.502 55.5554 118.322 55.6574L108.997 60.9406C108.817 61.0423 108.617 61.0996 108.418 61.1068C108.218 61.1139 108.026 61.0707 107.86 60.9815C107.695 60.8922 107.561 60.7601 107.474 60.5982C107.386 60.4364 107.347 60.2506 107.361 60.0594L108.093 50.1436C108.107 49.9522 108.174 49.7623 108.286 49.593C108.398 49.4237 108.552 49.2809 108.732 49.1789C108.912 49.077 109.112 49.0195 109.311 49.0122C109.511 49.0049 109.703 49.0481 109.869 49.1374L111.888 50.2255"
		stroke="#8AC0F7" stroke-width="2" stroke-linecap="round" />
	<path d="M333 43V45H326V52H324V45H317V43H324V36H326V43H333Z" fill="#8AC0F7" />
	<path d="M333 65V67H326V74H324V67H317V65H324V58H326V65H333Z" fill="#8AC0F7" />
	<path d="M311 43V45H304V52H302V45H295V43H302V36H304V43H311Z" fill="#8AC0F7" />
	<path d="M311 65V67H304V74H302V67H295V65H302V58H304V65H311Z" fill="#8AC0F7" />
	<path d="M311 87V89H304V96H302V89H295V87H302V80H304V87H311Z" fill="#8AC0F7" />
	<path d="M289 43V45H282V52H280V45H273V43H280V36H282V43H289Z" fill="#8AC0F7" />
	<path d="M267 43V45H260V52H258V45H251V43H258V36H260V43H267Z" fill="#8AC0F7" />
	<path d="M289 65V67H282V74H280V67H273V65H280V58H282V65H289Z" fill="#8AC0F7" />
	<path d="M289 21V23H282V30H280V23H273V21H280V14H282V21H289Z" fill="#8AC0F7" />
	<path d="M96 212V214H89V221H87V214H80V212H87V205H89V212H96Z" fill="#8AC0F7" />
	<path d="M74 190V192H67V199H65V192H58V190H65V183H67V190H74Z" fill="#8AC0F7" />
	<path d="M74 212V214H67V221H65V214H58V212H65V205H67V212H74Z" fill="#8AC0F7" />
	<path d="M74 234V236H67V243H65V236H58V234H65V227H67V234H74Z" fill="#8AC0F7" />
	<path d="M52 190V192H45V199H43V192H36V190H43V183H45V190H52Z" fill="#8AC0F7" />
	<path d="M30 190V192H23V199H21V192H14V190H21V183H23V190H30Z" fill="#8AC0F7" />
	<path d="M52 212V214H45V221H43V214H36V212H43V205H45V212H52Z" fill="#8AC0F7" />
	<path d="M52 168V170H45V177H43V170H36V168H43V161H45V168H52Z" fill="#8AC0F7" />
</svg>

<svg viewBox="0 0 477 260" fill="none" xmlns="http://www.w3.org/2000/svg"><path d="M298.07 212.234l71.483 41.307a20.002 20.002 0 0 0 20 0l76.014-43.887a20 20 0 0 0 10-17.32v-87.773a20.004 20.004 0 0 0-10-17.32L422.5 62.374M266.5 194l21 12.129" stroke="#5452CE" stroke-width="2" stroke-linecap="round"/><path d="M303.09 185.611v-69.613a20.005 20.005 0 0 1 10-17.32l56.464-32.6a20.004 20.004 0 0 1 20 0l56.464 32.6a20.001 20.001 0 0 1 10 17.32v39.861M284.07 181.233l85.484 49.885a20.007 20.007 0 0 0 20 0L415 216.427m13.107-7.568l17.911-10.341a20 20 0 0 0 10-17.32v-12.339M385.5 255.359c-9 3-15.758 4.332-21.946.759l-30.228-17.64m-17.224-10.051c-19.691-11.493-47.032-27.193-47.032-27.193" stroke="#5452CE" stroke-width="2" stroke-linecap="round"/><path fill-rule="evenodd" clip-rule="evenodd" d="M381.107 127.853L323 189l58.107-94 57.683 94-57.683-61.147zm-26.18 41.523l9.286-9.812h33.628l9.286 9.812h-52.2zm15.894-16.64l10.272-10.524 10.13 10.524h-20.402z" fill="#D6D5FF"/><path d="M381.107 127.853l.727-.686-.725-.769-.727.766.725.689zM323 189l-.851-.526 1.576 1.215L323 189zm58.107-94l.852-.523-.849-1.384-.854 1.381.851.526zm57.683 94l-.727.686 1.579-1.209-.852.523zm-83.863-19.624l-.726-.687-1.597 1.687h2.323v-1zm9.286-9.812v-1h-.43l-.296.312.726.688zm33.628 0l.726-.688-.296-.312h-.43v1zm9.286 9.812v1h2.323l-1.597-1.687-.726.687zm-36.306-16.64l-.716-.699-1.658 1.699h2.374v-1zm10.272-10.524l.721-.693-.716-.743-.721.738.716.698zm10.13 10.524v1h2.35l-1.63-1.694-.72.694zm-10.841-25.572l-58.107 61.147 1.45 1.378 58.106-61.147-1.449-1.378zm-56.531 62.362l58.106-94-1.701-1.052-58.107 94 1.702 1.052zm56.403-94.003l57.684 94 1.704-1.046-57.683-94-1.705 1.046zm59.263 92.791l-57.683-61.147-1.455 1.372 57.684 61.147 1.454-1.372zm-83.863-18.251l9.286-9.812-1.453-1.375-9.286 9.813 1.453 1.374zm8.559-9.499h33.628v-2h-33.628v2zm32.902-.313l9.286 9.812 1.452-1.374-9.286-9.813-1.452 1.375zm10.012 8.125h-52.2v2h52.2v-2zm-35.591-14.942l10.273-10.523-1.432-1.397-10.272 10.523 1.431 1.397zm8.837-10.528l10.129 10.523 1.441-1.387-10.129-10.523-1.441 1.387zm10.85 8.83h-20.402v2h20.402v-2z" fill="#5452CE"/><path d="M90.383 141.737s22.638-13.509 36.831-38.092a427.106 427.106 0 0 0 19.856-38.247s-23.2 45.149-45.93 41c-8.871 24.928-10.757 35.339-10.757 35.339z" fill="#FEB8AE"/><path d="M163.571 130.508s23.258 8 51.713-51.016c-2.451 6.842-10.4 25.728-23.648 48.67-16.935 29.333-36.235 47.339-36.235 47.339s-7.768-2.345 8.17-44.993zM262.815 107.68s-15.986 37.289-28.971 27.048c-1.274 2.207-5.147 14.631-4.781 24.874.178 4.964 3.208-4.529 6.156-2 4.5-1.5 6.5-3 9.426-4 3.828-7.643 7.801-16.432 10.5-23.64 6.406-17.11 7.67-22.282 7.67-22.282z" fill="#D6D5FF"/><path d="M84.14 137.973l6.39-44.223M88.398 76.618c-1.709 10.756-6.59 48.7-7.832 58.544-1.242 9.844 6.764 9.034 13.292 3.964s28.156-19.034 52.212-73.728" stroke="#DE5846" stroke-width="2" stroke-linecap="round"/><path d="M55.534 154.098c-.348 6.635 13.58 28.17 43.3 12.387 29.72-15.783 51.944-47.755 72.446-89.5 13.013-26.495 11.284-45.42 3.42-52.188" stroke="#DE5846" stroke-width="2" stroke-linecap="round"/><path d="M87.05 176.207s36.355-3.283 76.187-72.274c15.745-27.271 31.275-67.69 10.906-79.451-20.369-11.761-63.489 33.909-83.628 112.72M111.987 169.732s-2.3 15.736 8.192 21.794 50.179-9.085 95.423-112.589" stroke="#DE5846" stroke-width="2" stroke-linecap="round"/><path d="M89.14 181.025s-2.356 23.124 14.439 32.821c15.878 9.167 47.227 22 103.652-60.784" stroke="#DE5846" stroke-width="2" stroke-linecap="round"/><path d="M217.25 137.762a225.006 225.006 0 0 0 11.547-21.188c13.979-28.878 27.265-68.438 13.038-76.652" stroke="#5452CE" stroke-width="2" stroke-linecap="round"/><path d="M130.398 226.654s43.176-1.621 95.846-92.849c10.123-17.534 39.837-79.883 15.589-93.882-6.619-3.821-15.499-.73-25.116 7.074m-63.762 121.164c4.305-27.215 16.799-57.24 31.58-81.56" stroke="#5452CE" stroke-width="2" stroke-linecap="round"/><path d="M158.078 217.124s37.7 60.322 106.189-42.565c29.33-44.058 27.812-81.138 19.828-85.746" stroke="#5452CE" stroke-width="2" stroke-linecap="round"/><path d="M202.719 237.798s31.7-3.3 67.535-60.43c29.649-47.264 26.386-81.322 14.4-88.24-21.854-12.614-56.942 39.75-55.611 70.474" stroke="#5452CE" stroke-width="2" stroke-linecap="round"/><path d="M178.719 199.359c.677 6.099 11.757 11.94 27.496 2.342m56.917-94.576c-6.093 18.102-12.761 34.101-18.917 46.477" stroke="#5452CE" stroke-width="2" stroke-linecap="round"/><path d="M58.698 98.035c-14.89-8.596-33.048-5.019-40.56 7.991-7.51 13.009-1.53 30.524 13.36 39.122 14.89 8.598 33.048 5.018 40.56-7.991 7.51-13.009 1.527-30.528-13.36-39.122z" stroke="#DE5846" stroke-width="2" stroke-linecap="round"/><path d="M57.365 99.729c-13.397-7.735-29.734-4.516-36.493 7.19-6.758 11.705-1.377 27.464 12.02 35.198 13.396 7.735 29.734 4.516 36.492-7.19 6.759-11.705 1.376-27.464-12.02-35.198z" stroke="#8AC0F7" stroke-width="2" stroke-linecap="round"/><path d="M36.065 139.073c.596-2.286 5.933-24.856 5.933-24.856.084-.268.135-.417.575-.197 0 0 23.432 13.402 23.847 13.571.262.106.324.006.017-.253-1.989-1.666-27.957-21.639-27.957-21.639-.17-.148-.274-.072-.295.097 0 0-2.423 32.216-2.395 33.25.005.172.066.28.136.261.049-.013.1-.085.139-.234zm6.336-9.203l12.54-4.322a.15.15 0 0 0 .063-.22.148.148 0 0 0-.067-.054c-.12-.074-3.153-1.887-3.29-1.964a.481.481 0 0 0-.398-.034c-.122.042-8.012 2.687-8.138 2.731a.515.515 0 0 0-.286.361c-.03.157-.489 3.086-.53 3.259-.043.174.007.269.097.245l.01-.002z" fill="#FFE0DA"/><path d="M43.015 123.075c-.138.048-.21.02-.137-.288.073-.309.966-4.209.966-4.416 0-.208.168-.35.488-.165.32.185 4.087 2.326 4.29 2.44.203.113.408.358.23.419l-5.837 2.01z" fill="#FFE0DA"/><path d="M36.065 139.073c.596-2.286 5.933-24.856 5.933-24.856.084-.268.135-.417.575-.197 0 0 23.432 13.402 23.847 13.571.262.106.324.006.017-.253-1.989-1.666-27.957-21.639-27.957-21.639-.17-.148-.274-.072-.295.097 0 0-2.423 32.216-2.395 33.25.005.172.066.28.136.261.049-.013.1-.085.139-.234zm6.336-9.203l12.54-4.322a.15.15 0 0 0 .063-.22.148.148 0 0 0-.067-.054c-.12-.074-3.153-1.887-3.29-1.964a.481.481 0 0 0-.398-.034c-.122.042-8.012 2.687-8.138 2.731a.515.515 0 0 0-.286.361c-.03.157-.489 3.086-.53 3.259-.043.174.007.269.097.245l.01-.002z" stroke="#DE5846" stroke-width="2"/><path d="M43.015 123.075c-.138.048-.21.02-.137-.288.073-.309.966-4.209.966-4.416 0-.208.168-.35.488-.165.32.185 4.087 2.326 4.29 2.44.203.113.408.358.23.419l-5.837 2.01z" stroke="#DE5846" stroke-width="2"/><path d="M17.963 106.277s-3.06 4.9-3.561 5.765a25.026 25.026 0 0 0-2.622 17.977m2.73 7.495a34.086 34.086 0 0 0 13.25 13.648m3.804 1.906c14.054 6.025 29.874 2.022 36.757-9.895a17.4 17.4 0 0 0 1.287-2.532" stroke="#DE5846" stroke-width="2" stroke-linecap="round"/><path d="M199.699 190.463c-4.53-2.865 3.74-13.421 18.474-23.578 14.733-10.158 30.349-16.069 34.88-13.205 4.531 2.865-3.74 13.421-18.474 23.579-14.733 10.157-30.349 16.066-34.88 13.204z" stroke="#5452CE" stroke-width="2" stroke-linecap="round"/><path d="M250.485 157.043c-1.321 4.34-8.069 11.37-17.982 18.205-11.226 7.739-23.006 12.812-29.144 12.87" stroke="#8AC0F7" stroke-width="2" stroke-linecap="round"/><path d="M199.246 190.122s7.358 7.722 9.193 8.904c1.665 1.072 4.811.894 8.862-.294m7.299-2.789a107.44 107.44 0 0 0 16.014-9.227m4.208-3.051c9.172-7.004 14.755-13.777 14.422-17.351-.075-.807-5.217-11.574-5.217-11.574M187.87 47.001c10.429-6.094 23.2-3.65 28.526 5.465 5.325 9.114 1.188 21.44-9.242 27.535-9.243 5.402-20.327 4.095-26.435-2.618" stroke="#5452CE" stroke-width="2" stroke-linecap="round"/><path d="M181.02 73.115c4.549 7.785 15.46 9.875 24.371 4.669 8.91-5.207 12.444-15.74 7.894-23.525-4.549-7.785-15.461-9.875-24.371-4.669a21.48 21.48 0 0 0-2.196 1.471" stroke="#8AC0F7" stroke-width="2" stroke-linecap="round"/><path d="M187.281 40.824c9.855-4.284 21.207-1.585 26.086 6.763.73 1.246 2.064 3.376 2.064 3.376" stroke="#5452CE" stroke-width="2" stroke-linecap="round"/><path d="M244.468 233.17c-8.923 6.092-18.4 10.591-28.044 13.48M240.834 228.515s-33.052 33.332-81.881 14.493" stroke="#8AC0F7" stroke-width="2" stroke-linecap="round"/><path d="M240.761 228.544l-1.789-2.336a1.275 1.275 0 0 1-.165-1.257 1.276 1.276 0 0 1 1.007-.772l11.436-1.498a1.27 1.27 0 0 1 1.336 1.743l-4.423 10.652a1.263 1.263 0 0 1-1.007.771 1.268 1.268 0 0 1-1.171-.486l-1.647-2.15M111.782 50.297c5.872-7.97 12.671-14.894 20.071-20.62M116.216 52.642s18.677-37.937 65.694-40.773" stroke="#8AC0F7" stroke-width="2" stroke-linecap="round"/><path d="M116.269 52.587l2.192 1.182a.945.945 0 0 1 .499.923c-.014.192-.08.382-.192.551a1.31 1.31 0 0 1-.446.414l-9.325 5.284c-.18.101-.38.159-.579.166-.2.007-.392-.036-.558-.126a.946.946 0 0 1-.499-.922l.732-9.915c.014-.192.081-.382.193-.551a1.31 1.31 0 0 1 1.025-.58c.2-.008.392.035.558.124l2.019 1.088" stroke="#8AC0F7" stroke-width="2" stroke-linecap="round"/><path d="M333 43v2h-7v7h-2v-7h-7v-2h7v-7h2v7h7zM333 65v2h-7v7h-2v-7h-7v-2h7v-7h2v7h7zM311 43v2h-7v7h-2v-7h-7v-2h7v-7h2v7h7zM311 65v2h-7v7h-2v-7h-7v-2h7v-7h2v7h7zM311 87v2h-7v7h-2v-7h-7v-2h7v-7h2v7h7zM289 43v2h-7v7h-2v-7h-7v-2h7v-7h2v7h7zM267 43v2h-7v7h-2v-7h-7v-2h7v-7h2v7h7zM289 65v2h-7v7h-2v-7h-7v-2h7v-7h2v7h7zM289 21v2h-7v7h-2v-7h-7v-2h7v-7h2v7h7zM96 212v2h-7v7h-2v-7h-7v-2h7v-7h2v7h7zM74 190v2h-7v7h-2v-7h-7v-2h7v-7h2v7h7zM74 212v2h-7v7h-2v-7h-7v-2h7v-7h2v7h7zM74 234v2h-7v7h-2v-7h-7v-2h7v-7h2v7h7zM52 190v2h-7v7h-2v-7h-7v-2h7v-7h2v7h7zM30 190v2h-7v7h-2v-7h-7v-2h7v-7h2v7h7zM52 212v2h-7v7h-2v-7h-7v-2h7v-7h2v7h7zM52 168v2h-7v7h-2v-7h-7v-2h7v-7h2v7h7z" fill="#8AC0F7"/></svg>
